papirus/22x22/places/user-desktop.svg

<?xml version="1.0" encoding="UTF-8" standalone="no"?>
<svg id="svg4222" xmlns:rdf="http://www.w3.org/1999/02/22-rdf-syntax-ns#" xmlns="http://www.w3.org/2000/svg" height="22" width="22" version="1.1" xmlns:cc="http://creativecommons.org/ns#" viewBox="0 0 44 44.000001" xmlns:dc="http://purl.org/dc/elements/1.1/">
 <metadata id="metadata4227">
  <rdf:RDF>
   <cc:Work rdf:about="">
    <dc:format>image/svg+xml</dc:format>
    <dc:type rdf:resource="http://purl.org/dc/dcmitype/StillImage"/>
    <dc:title/>
   </cc:Work>
  </rdf:RDF>
 </metadata>
 <path id="rect4203" fill="#ababab" d="m2 8v30c0 1.108 0.892 2 2 2h36c1.108 0 2-0.892 2-2v-30z"/>
 <path id="rect3328" fill="#4d4d4d" d="m4 4c-1.108 0-2 0.892-2 2v2h40v-2c0-1.108-0.892-2-2-2z"/>
 <path id="path3345" opacity=".1" fill="#fff" d="m4 4c-1.108 0-2 0.892-2 2v1c0-1.108 0.892-2 2-2h36c1.108 0 2 0.892 2 2v-1c0-1.108-0.892-2-2-2z"/>
 <path id="rect4155" fill="#4d4d4d" d="m14 36c-1.108 0-2 0.892-2 2v2h20v-2c0-1.108-0.892-2-2-2h-16z"/>
 <path id="path4148" opacity=".2" d="m2 38v1c0 1.108 0.892 2 2 2h36c1.108 0 2-0.892 2-2v-1c0 1.108-0.892 2-2 2h-36c-1.108 0-2-0.892-2-2z"/>
</svg>

<?xml version="1.0" encoding="UTF-8" standalone="no"?>
<!-- Created with Inkscape (http://www.inkscape.org/) -->

<svg
   xmlns:dc="http://purl.org/dc/elements/1.1/"
   xmlns:cc="http://creativecommons.org/ns#"
   xmlns:rdf="http://www.w3.org/1999/02/22-rdf-syntax-ns#"
   xmlns:svg="http://www.w3.org/2000/svg"
   xmlns="http://www.w3.org/2000/svg"
   xmlns:sodipodi="http://sodipodi.sourceforge.net/DTD/sodipodi-0.dtd"
   xmlns:inkscape="http://www.inkscape.org/namespaces/inkscape"
   id="svg4222"
   height="22"
   width="22"
   version="1.1"
   viewBox="0 0 44 44.000001"
   inkscape:version="0.91 r13725"
   sodipodi:docname="user-desktop.svg">
  <defs
     id="defs12" />
  <sodipodi:namedview
     pagecolor="#ffffff"
     bordercolor="#666666"
     borderopacity="1"
     objecttolerance="10"
     gridtolerance="10"
     guidetolerance="10"
     inkscape:pageopacity="0"
     inkscape:pageshadow="2"
     inkscape:window-width="1600"
     inkscape:window-height="849"
     id="namedview10"
     showgrid="false"
     inkscape:zoom="8.6599296"
     inkscape:cx="-28.501776"
     inkscape:cy="12"
     inkscape:window-x="0"
     inkscape:window-y="0"
     inkscape:window-maximized="1"
     inkscape:current-layer="svg4222" />
  <metadata
     id="metadata4227">
    <rdf:RDF>
      <cc:Work
         rdf:about="">
        <dc:format>image/svg+xml</dc:format>
        <dc:type
           rdf:resource="http://purl.org/dc/dcmitype/StillImage" />
        <dc:title></dc:title>
      </cc:Work>
    </rdf:RDF>
  </metadata>
  <path
     style="fill:#ababab;fill-opacity:1"
     inkscape:connector-curvature="0"
     d="m 2,8 0,30 c 0,1.108 0.892,2 2,2 l 36,0 c 1.108,0 2,-0.892 2,-2 L 42,8 Z"
     id="rect4203" />
  <path
     style="fill:#4d4d4d"
     inkscape:connector-curvature="0"
     d="M 4,4 C 2.892,4 2,4.892 2,6 L 2,8 42,8 42,6 C 42,4.892 41.108,4 40,4 Z"
     id="rect3328" />
  <path
     style="opacity:0.1;fill:#ffffff"
     inkscape:connector-curvature="0"
     d="M 4,4 C 2.892,4 2,4.892 2,6 L 2,7 C 2,5.892 2.892,5 4,5 l 36,0 c 1.108,0 2,0.892 2,2 L 42,6 C 42,4.892 41.108,4 40,4 Z"
     id="path3345" />
  <path
     style="fill:#4d4d4d"
     inkscape:connector-curvature="0"
     d="m 14,36 c -1.108,0 -2,0.892 -2,2 l 0,2 20,0 0,-2 c 0,-1.108 -0.892,-2 -2,-2 l -16,0 z"
     id="rect4155" />
  <path
     style="opacity:0.3"
     inkscape:connector-curvature="0"
     d="m 2,37 0,1 c 0,1.108 0.892,2 2,2 l 36,0 c 1.108,0 2,-0.892 2,-2 l 0,-1 c 0,1.108 -0.892,2 -2,2 L 4,39 C 2.892,39 2,38.108 2,37 Z"
     id="path4148" />
</svg>
